src/assets/icons/multicolor/profile.multicolor.svg

<svg width="24" height="24" fill="none">
  <path fill="#093971" d="M12 0C5.37262 0 0 5.37259 0 12c0 6.6274 5.37262 12 12 12 6.6274 0 12-5.3726 12-12 0-6.62741-5.3726-12-12-12zm0 23.25C5.79675 23.25.75 18.2033.75 12 .75 5.79675 5.79675.75 12 .75 18.2033.75 23.25 5.79675 23.25 12c0 6.2033-5.0467 11.25-11.25 11.25z"/>
  <path fill="#093971" d="M12 10.6006c1.6569 0 3-1.51098 3-3.37495 0-1.86394-1.3431-3.375-3-3.375-1.6568 0-3 1.51106-3 3.375 0 1.86397 1.3432 3.37495 3 3.37495zm0-5.99995c1.2407 0 2.25 1.17757 2.25 2.625 0 1.44742-1.0093 2.625-2.25 2.625-1.2406 0-2.25-1.17758-2.25-2.625 0-1.44743 1.0094-2.625 2.25-2.625zM12 10.9756c-3.31372 0-6 2.7686-6 6.1838 0 .4521.04999.8917.13939 1.3162 1.48215 1.2201 3.67384 1.7646 5.82301 1.7646 2.3388 0 4.6274-.6445 5.8982-1.7646.0894-.4245.1394-.8641.1394-1.3162 0-3.4152-2.6863-6.1838-6-6.1838zm5.1739 7.0946c-1.1413.8804-3.1056 1.42-5.2115 1.42-2.04886 0-3.90226-.519-5.13815-1.4313-.04931-.3016-.07425-.6031-.07425-.8995 0-2.9962 2.35515-5.4338 5.25-5.4338 2.8949 0 5.25 2.4376 5.25 5.4338 0 .3001-.0255.6054-.0761.9108z"/>
</svg>

<svg width="24" height="24" viewBox="0 0 24 24" fill="none" xmlns="http://www.w3.org/2000/svg">
<path d="M12 0C5.37262 0 0 5.37259 0 12C0 18.6274 5.37262 24 12 24C18.6274 24 24 18.6274 24 12C24 5.37259 18.6274 0 12 0ZM12 23.25C5.79675 23.25 0.75 18.2033 0.75 12C0.75 5.79675 5.79675 0.75 12 0.75C18.2033 0.75 23.25 5.79675 23.25 12C23.25 18.2033 18.2033 23.25 12 23.25Z" fill="#093971"/>
<path d="M12 10.6006C13.6569 10.6006 15 9.08962 15 7.22565C15 5.36171 13.6569 3.85065 12 3.85065C10.3432 3.85065 9 5.36171 9 7.22565C9 9.08962 10.3432 10.6006 12 10.6006ZM12 4.60065C13.2407 4.60065 14.25 5.77822 14.25 7.22565C14.25 8.67307 13.2407 9.85065 12 9.85065C10.7594 9.85065 9.75 8.67307 9.75 7.22565C9.75 5.77822 10.7594 4.60065 12 4.60065Z" fill="#093971"/>
<path d="M12 10.9756C8.68628 10.9756 6 13.7442 6 17.1594C6 17.6115 6.04999 18.0511 6.13939 18.4756C7.62154 19.6957 9.81323 20.2402 11.9624 20.2402C14.3012 20.2402 16.5898 19.5957 17.8606 18.4756C17.95 18.0511 18 17.6115 18 17.1594C18 13.7442 15.3137 10.9756 12 10.9756ZM17.1739 18.0702C16.0326 18.9506 14.0683 19.4902 11.9624 19.4902C9.91354 19.4902 8.06014 18.9712 6.82425 18.0589C6.77494 17.7573 6.75 17.4558 6.75 17.1594C6.75 14.1632 9.10515 11.7256 12 11.7256C14.8949 11.7256 17.25 14.1632 17.25 17.1594C17.25 17.4595 17.2245 17.7648 17.1739 18.0702Z" fill="#093971"/>
</svg>
